assets/img/facebook-contact.svg

<svg width="43" height="43" viewBox="0 0 43 43" fill="none" xmlns="http://www.w3.org/2000/svg">
<circle cx="21.5" cy="21.5" r="21.5" fill="#FA7353"/>
<g clip-path="url(#clip0_1490_10827)">
<path d="M10.001 21.639C10.001 14.949 15.241 10 22.001 10C28.761 10 34 14.95 34 21.639C34 28.328 28.76 33.277 22 33.277C20.79 33.277 19.62 33.117 18.53 32.817C18.3172 32.7597 18.0913 32.7774 17.89 32.867L15.5 33.917C15.3559 33.9811 15.1983 34.0088 15.041 33.9975C14.8837 33.9862 14.7316 33.9364 14.5981 33.8523C14.4647 33.7683 14.354 33.6527 14.2758 33.5157C14.1976 33.3788 14.1544 33.2246 14.15 33.067L14.08 30.927C14.0746 30.7981 14.0435 30.6715 13.9885 30.5548C13.9336 30.438 13.8559 30.3334 13.76 30.247C12.5576 29.162 11.6005 27.8331 10.9524 26.3489C10.3044 24.8647 9.98038 23.2593 10.002 21.64L10.001 21.639ZM18.321 19.449L14.801 25.049C14.451 25.579 15.121 26.188 15.621 25.799L19.411 22.929C19.671 22.729 20.011 22.729 20.281 22.929L23.081 25.029C23.921 25.659 25.121 25.429 25.681 24.549L29.201 18.949C29.551 18.419 28.881 17.819 28.381 18.199L24.591 21.069C24.341 21.269 23.991 21.269 23.731 21.069L20.931 18.969C20.7319 18.8186 20.5037 18.7112 20.2608 18.6537C20.018 18.5962 19.7658 18.5898 19.5204 18.6349C19.275 18.6801 19.0416 18.7757 18.8351 18.9159C18.6286 19.056 18.4536 19.2376 18.321 19.449Z" fill="#FFF5F2"/>
</g>
<defs>
<clipPath id="clip0_1490_10827">
<rect width="24" height="24" fill="white" transform="translate(10 10)"/>
</clipPath>
</defs>
</svg>

<svg xmlns="http://www.w3.org/2000/svg" width="43" height="43" fill="none"><circle cx="21.5" cy="21.5" r="21.5" fill="#FA7353"/><g clip-path="url(#a)"><path fill="#FFF5F2" d="M10.001 21.639c0-6.69 5.24-11.639 12-11.639S34 14.95 34 21.639s-5.24 11.638-12 11.638c-1.21 0-2.38-.16-3.47-.46a.96.96 0 0 0-.64.05l-2.39 1.05a.96.96 0 0 1-1.35-.85l-.07-2.14a.97.97 0 0 0-.32-.68 11.4 11.4 0 0 1-3.758-8.607zm8.32-2.19-3.52 5.6c-.35.53.32 1.139.82.75l3.79-2.87c.26-.2.6-.2.87 0l2.8 2.1c.84.63 2.04.4 2.6-.48l3.52-5.6c.35-.53-.32-1.13-.82-.75l-3.79 2.87c-.25.2-.6.2-.86 0l-2.8-2.1a1.8 1.8 0 0 0-2.61.48"/></g><defs><clipPath id="a"><path fill="#fff" d="M10 10h24v24H10z"/></clipPath></defs></svg>
